images/ico-bottle-yellow.svg

<svg height="46" width="39" xmlns="http://www.w3.org/2000/svg"><path d="m37.853 44.034c-.915 1.067-2.435 1.607-4.516 1.61-.019 0-.04-.002-.061-.002-.021-.002-.042-.004-.063-.007-.157-.022-.292-.062-.407-.108-.477.174-1.32.353-2.799.385-.031.005-.06.007-.091.007-.001 0-.002 0-.002 0-.068 0-.134-.001-.199-.002-.094.001-.192.008-.287-.005-1.482-.032-2.326-.212-2.803-.385-.118.049-.259.088-.423.109-.031.005-.064.008-.097.008-5.128 0-5.389-3.263-5.389-3.919 0 0 0 0 0-.001 0-.076.003-.135.005-.173v-3.657c0-.893.104-1.383.315-1.714-.18-.266-.312-.605-.312-1.012v-2.454c0-.005 0-.008 0-.012.01-.803.115-1.262.315-1.577-.181-.267-.314-.606-.314-1.014v-.422c-.002-.019-.002-.036-.002-.055v-1.439c.007-.826.112-1.296.315-1.615-.181-.269-.314-.608-.314-1.015v-.132c-.002-.018-.002-.035-.002-.054v-1.638c.001-.012.001-.025.002-.037v-.075c0-.005 0-.01 0-.015.014-.763.118-1.205.313-1.512-.181-.266-.313-.605-.313-1.011v-.423c0-.002 0-.003 0-.005-.002-.016-.002-.032-.002-.049 0-.004 0-.008 0-.013v-1.329c0-.893.103-1.383.314-1.714-.18-.266-.312-.604-.312-1.012v-2.167c0-.013 0-.028.001-.043.01-.167.295-4.09 5.324-8.682 0-.009 0-.018 0-.027v-.001-.002c0-.001 0-.002 0-.003v-.001c0-.001 0-.002 0-.003 0 0 0-.001 0-.003v-.001s0 0 0-.001v-.001c0-.001 0-.001 0-.001v-.001c0-.001 0-.001 0-.001v-.001-.002c0-.001 0-.001 0-.001v-.003-.001c0-.001 0-.001 0-.001s0 0 0-.001v-.003-.001c0-.001 0-.001 0-.001 0-.001 0-.001 0-.001v-.502c-.282-.153-.473-.461-.473-.799 0-.082.013-.165.037-.245-.001-.015-.001-.03-.001-.044 0-.005 0-.011 0-.016v-2.585c0-.194.078-.38.216-.517.131-.129.879-.768 2.907-.881.01-.002.019-.003.029-.005.049-.009.096-.012.146-.012h1.609c.051-.001.099.003.148.012.008.002.017.003.026.005 2.001.111 2.756.736 2.902.877.136.131.221.316.221.521v2.6c0 .015-.001.029-.001.043.024.08.036.164.036.247 0 .337-.192.645-.472.799v.419.002.003.004.001.007.001.003.001.002.002.007.001.002.001.002.002.002.002.001.006.003.005.002.002.002.001.083c4.934 4.507 5.303 8.369 5.323 8.67 0 .012.002.023.002.035v.02.007 2.16c0 .367-.108.679-.261.931v.019c0 .043-.003.086-.012.128.185.329.275.812.275 1.647v1.344c0 .017 0 .034-.002.052v.424c0 .389-.122.715-.29.977-.005.015-.011.03-.017.046.191.304.292.745.307 1.499v.009.006.002.072c.001.012.002.025.002.037v.077 1.564c0 .019 0 .035-.002.054v.133c0 .388-.12.712-.287.973.01.041.019.083.023.127.171.318.259.774.266 1.53v.095 1.343c0 .019 0 .036-.002.055v.422c0 .38-.116.701-.28.959.011.047.017.094.019.144.166.311.253.757.262 1.488.001.003.001.006.001.01v.115.009 2.331c0 .37-.11.684-.265.938.001.017.002.033.002.05 0 .033-.003.065-.007.096.183.33.272.812.272 1.643v3.657c.003.038.006.097.007.167 0 .393-.084 1.406-.862 2.31zm-.592-29.63c-.026-.27-.472-3.786-5.079-7.889-.005-.006-.012-.012-.019-.017 0 0 0 0 0-.001-.075-.071-.131-.154-.169-.241-.037-.087-.057-.181-.057-.281 0-.002 0-.004 0-.005 0-.004 0-.008 0-.01 0-.029 0-.163 0-.341 0-.001 0-.001 0-.001 0-.004 0-.006 0-.009 0-.001 0-.001 0-.001 0-.003 0-.006 0-.009 0-.003 0-.003 0-.004v-.001c0-.001 0-.003 0-.003 0-.002 0-.002 0-.002v-.001s0 0 0-.001c0 0 0 0 0-.001s0-.003 0-.004 0 0 0-.002c0-.001 0-.001 0-.001 0-.001 0-.001 0-.001 0-.001 0-.003 0-.004s0-.001 0-.001c0-.002 0-.002 0-.002s0 0 0-.001 0-.001 0-.001c0-.001 0-.001 0-.001 0-.001 0-.001 0-.001s0 0 0-.001c0 0 0 0 0-.001v-.001c0-.002 0-.003 0-.003 0-.001 0-.001 0-.001v-.004c0-.001 0-.002 0-.002v-.001-.001-.001-.001c0-.001 0-.001 0-.001v-.001c0-.001 0-.001 0-.002 0-.001 0-.001 0-.001 0-.001 0-.002 0-.002v-.001s0 0 0-.002v-.001-.001s0 0 0-.001v-.001-.001c0-.001 0-.001 0-.001 0-.001 0-.002 0-.003s0-.001 0-.002v-.002c0-.001 0-.002 0-.003s0-.001 0-.003v-.001-1.054-.001c0-.014 0-.027.001-.039.006-.115.037-.222.09-.315.038-.069.086-.13.143-.182l.019-.102c.027-.135.091-.258.184-.356v-1.654c-.29-.132-.871-.32-1.871-.362-.032-.002-.061-.005-.091-.01h-1.393c-.031.005-.06.008-.091.01-1.001.042-1.581.23-1.871.362v1.654c.092.098.156.221.183.356l.02.105c.093.084.164.195.202.323.003.009.005.018.007.027.004.014.007.028.01.043.009.045.014.091.014.137h.001v1.141.001.004.002.001.004.002.002.001.001.001.002.002.001.001.002.003.002.003.002.003.001.001.003.001.001.001.002.002.001.001.001.001.002.001.003.001.003.001.002.002.001.003.001.002.003.001.007.007.001.271.011.005c-.001.099-.02.194-.058.281-.038.088-.093.17-.168.24 0 .001-.001.001-.001.001-.006.006-.012.011-.018.017-4.606 4.103-5.053 7.62-5.079 7.878v2.136c0 .092.036.166.081.225h14.929c.045-.058.081-.133.081-.225zm.002 4.874c0-.672-.067-.881-.089-.93-.013-.01-.035-.025-.053-.037-.034-.024-.074-.052-.118-.085h-14.578c-.043.033-.083.061-.117.085-.017.012-.04.027-.053.037-.022.049-.088.258-.088.93v1.286c.001.018.002.036.002.054v.479c0 .017.003.031.005.047h15.081c.003-.015.005-.03.005-.047v-.479c0-.018.002-.036.003-.054zm-15.096 13.642v2.253c0 .113.054.201.112.264h14.871c.058-.063.112-.151.112-.264v-2.253c-.001-.011-.001-.022-.001-.034v-.162c-.005-.46-.045-.671-.071-.763h-14.951c-.026.092-.066.303-.071.763v.162c0 .012-.001.023-.001.034zm.002-4.337v1.534c0 .215.201.345.244.369.016.009.03.018.045.027h14.513c.015-.008.028-.018.045-.027.041-.024.243-.154.243-.369v-1.534c0-.015.001-.029.001-.044v-.328c-.003-.414-.033-.635-.059-.747h-14.975c-.025.113-.056.335-.059.751v.323c.001.015.002.03.002.045zm15.09-3.011v-1.93c-.01-.53-.067-.705-.086-.749-.014-.011-.035-.026-.053-.038-.075-.051-.178-.122-.286-.232-.009-.009-.017-.02-.026-.03h-14.187c-.008.01-.016.021-.025.03-.109.109-.212.18-.287.232-.018.012-.039.028-.053.038-.019.044-.076.219-.086.749v1.93c0 .216.201.344.243.369.04.02.078.046.113.075h14.377c.036-.029.073-.055.113-.075.042-.025.243-.153.243-.369zm.01 16.088c-.001-.003-.001-.006-.001-.009-.002-.025-.004-.05-.004-.073 0-.013 0-.024.001-.035v-3.643c0-.673-.067-.881-.089-.929-.013-.011-.035-.026-.053-.038-.02-.015-.044-.03-.068-.049h-14.68c-.025.019-.049.034-.069.049-.017.012-.04.027-.053.038-.022.048-.088.256-.088.929v3.686c0 .026-.002.052-.004.078 0 .003-.001.028-.001.067v.001c.001 2.246 2.9 2.462 3.887 2.47.006-.002.013-.003.018-.004.116-.139.258-.244.441-.252.213-.01.38.037.52.191.143.063.78.304 2.489.335.028.002.051.003.077.004h.115.008.007.115c.025-.001.05-.004.077-.004 1.709-.031 2.347-.272 2.489-.335.14-.154.308-.201.52-.191.183.008.325.113.441.252.006.001.013.002.019.004 1.594-.009 2.761-.391 3.377-1.106.461-.536.511-1.133.511-1.365 0-.036-.002-.06-.002-.071zm-29.032 3.271c-1.303-.003-2.583-.336-3.714-.965-3.6-2.005-4.849-6.47-2.789-9.974l6.503-11.036 6.503 11.036c.647 1.1.989 2.346.992 3.614.009 4.036-3.347 7.316-7.495 7.325zm5.192-10.178-5.192-8.83-5.192 8.805c-1.022 1.773-1.022 3.937 0 5.71 1.62 2.813 5.277 3.814 8.166 2.236v.025c2.861-1.604 3.852-5.155 2.218-7.946zm-4.889 7.357v-1.471c1.512 0 2.999-1.349 2.999-3.066h1.512c0 2.453-1.991 4.537-4.511 4.537z" fill="#fcd139" fill-rule="evenodd"/></svg>

<svg 
 xmlns="http://www.w3.org/2000/svg"
 xmlns:xlink="http://www.w3.org/1999/xlink"
 width="39px" height="46px">
<path fill-rule="evenodd"  fill="#fcd139"
 d="M37.853,44.034 C36.938,45.101 35.418,45.641 33.337,45.644 C33.318,45.644 33.297,45.642 33.276,45.642 C33.255,45.640 33.234,45.638 33.213,45.635 C33.056,45.613 32.921,45.573 32.806,45.527 C32.329,45.701 31.486,45.880 30.007,45.912 C29.976,45.917 29.947,45.919 29.916,45.919 C29.915,45.919 29.914,45.919 29.914,45.919 C29.846,45.919 29.780,45.918 29.715,45.917 C29.621,45.918 29.523,45.925 29.428,45.912 C27.946,45.880 27.102,45.700 26.625,45.527 C26.507,45.576 26.366,45.615 26.202,45.636 C26.171,45.641 26.138,45.644 26.105,45.644 C20.977,45.644 20.716,42.381 20.716,41.725 C20.716,41.725 20.716,41.725 20.716,41.724 C20.716,41.648 20.719,41.589 20.721,41.551 L20.721,37.894 C20.721,37.001 20.825,36.511 21.036,36.180 C20.856,35.914 20.724,35.575 20.724,35.168 L20.724,32.714 C20.724,32.709 20.724,32.706 20.724,32.702 C20.734,31.899 20.839,31.440 21.039,31.125 C20.858,30.858 20.725,30.519 20.725,30.111 L20.725,29.689 C20.723,29.670 20.723,29.653 20.723,29.634 L20.723,28.195 C20.730,27.369 20.835,26.899 21.038,26.580 C20.857,26.311 20.724,25.972 20.724,25.565 L20.724,25.433 C20.722,25.415 20.722,25.398 20.722,25.379 L20.722,23.741 C20.723,23.729 20.723,23.716 20.724,23.704 L20.724,23.629 C20.724,23.624 20.724,23.619 20.724,23.614 C20.738,22.851 20.842,22.409 21.037,22.102 C20.856,21.836 20.724,21.497 20.724,21.091 L20.724,20.668 C20.724,20.666 20.724,20.665 20.724,20.663 C20.722,20.647 20.722,20.631 20.722,20.614 C20.722,20.610 20.722,20.606 20.722,20.601 L20.722,19.272 C20.722,18.379 20.825,17.889 21.036,17.558 C20.856,17.292 20.724,16.954 20.724,16.546 L20.724,14.379 C20.724,14.366 20.724,14.351 20.725,14.336 C20.735,14.169 21.020,10.246 26.049,5.654 C26.049,5.645 26.049,5.636 26.049,5.627 L26.049,5.626 C26.049,5.626 26.049,5.624 26.049,5.624 C26.049,5.623 26.049,5.622 26.049,5.621 L26.049,5.620 C26.049,5.619 26.049,5.618 26.049,5.617 C26.049,5.617 26.049,5.616 26.049,5.614 L26.049,5.614 L26.049,5.613 C26.049,5.613 26.049,5.613 26.049,5.612 L26.049,5.611 C26.049,5.610 26.049,5.610 26.049,5.610 L26.049,5.609 C26.049,5.608 26.049,5.608 26.049,5.608 L26.049,5.607 L26.049,5.607 L26.049,5.605 C26.049,5.605 26.049,5.605 26.049,5.605 C26.049,5.604 26.049,5.604 26.049,5.604 L26.049,5.601 L26.049,5.600 C26.049,5.599 26.049,5.599 26.049,5.599 C26.049,5.599 26.049,5.599 26.049,5.599 C26.049,5.599 26.049,5.599 26.049,5.598 L26.049,5.595 L26.049,5.594 C26.049,5.593 26.049,5.593 26.049,5.593 C26.049,5.592 26.049,5.592 26.049,5.592 L26.049,5.090 C25.767,4.937 25.576,4.629 25.576,4.291 C25.576,4.209 25.589,4.126 25.613,4.046 C25.612,4.031 25.612,4.016 25.612,4.002 C25.612,3.997 25.612,3.991 25.612,3.986 L25.612,1.401 C25.612,1.207 25.690,1.021 25.828,0.884 C25.959,0.755 26.707,0.116 28.735,0.003 C28.745,0.001 28.754,-0.000 28.764,-0.002 C28.813,-0.011 28.860,-0.014 28.910,-0.014 L30.519,-0.014 C30.570,-0.015 30.618,-0.011 30.667,-0.002 C30.675,-0.000 30.684,0.001 30.693,0.003 C32.694,0.114 33.449,0.739 33.595,0.880 C33.731,1.011 33.816,1.196 33.816,1.401 L33.816,4.001 C33.816,4.016 33.815,4.030 33.815,4.044 C33.839,4.124 33.851,4.208 33.851,4.291 C33.851,4.628 33.659,4.936 33.379,5.090 L33.379,5.509 L33.379,5.511 C33.379,5.512 33.379,5.514 33.379,5.514 C33.379,5.515 33.379,5.517 33.379,5.518 L33.379,5.518 C33.379,5.519 33.379,5.519 33.379,5.519 C33.379,5.523 33.379,5.524 33.379,5.526 C33.379,5.526 33.379,5.527 33.379,5.527 C33.379,5.529 33.379,5.530 33.379,5.530 C33.379,5.530 33.379,5.530 33.379,5.531 L33.379,5.533 L33.379,5.533 C33.379,5.534 33.379,5.535 33.379,5.535 C33.379,5.536 33.379,5.539 33.379,5.542 C33.379,5.542 33.379,5.542 33.379,5.543 L33.379,5.545 C33.379,5.546 33.379,5.546 33.379,5.546 C33.379,5.548 33.379,5.548 33.379,5.548 L33.379,5.550 C33.379,5.551 33.379,5.551 33.379,5.552 C33.379,5.553 33.379,5.553 33.379,5.554 C33.379,5.554 33.379,5.554 33.379,5.555 L33.379,5.555 C33.379,5.557 33.379,5.560 33.379,5.561 C33.379,5.562 33.379,5.562 33.379,5.564 L33.379,5.564 C33.379,5.565 33.379,5.567 33.379,5.569 C33.379,5.571 33.379,5.571 33.379,5.571 C33.379,5.571 33.379,5.571 33.379,5.573 L33.379,5.573 C33.379,5.574 33.379,5.574 33.379,5.575 C33.379,5.575 33.379,5.575 33.379,5.576 C33.379,5.604 33.379,5.632 33.379,5.659 C38.313,10.166 38.682,14.028 38.702,14.329 C38.702,14.341 38.704,14.352 38.704,14.364 C38.704,14.371 38.704,14.377 38.704,14.384 C38.704,14.386 38.704,14.388 38.704,14.391 L38.704,16.551 C38.704,16.918 38.596,17.230 38.443,17.482 C38.443,17.488 38.443,17.495 38.443,17.501 C38.443,17.544 38.440,17.587 38.431,17.629 C38.616,17.958 38.706,18.441 38.706,19.276 L38.706,20.620 C38.706,20.637 38.706,20.654 38.704,20.672 L38.704,21.096 C38.704,21.485 38.582,21.811 38.414,22.073 C38.409,22.088 38.403,22.103 38.397,22.119 C38.588,22.423 38.689,22.864 38.704,23.618 C38.704,23.621 38.704,23.624 38.704,23.627 C38.704,23.629 38.704,23.632 38.704,23.633 C38.704,23.635 38.704,23.635 38.704,23.635 L38.704,23.707 C38.705,23.719 38.706,23.732 38.706,23.744 L38.706,23.821 L38.706,25.385 C38.706,25.404 38.706,25.420 38.704,25.439 L38.704,25.572 C38.704,25.960 38.584,26.284 38.417,26.545 C38.427,26.586 38.436,26.628 38.440,26.672 C38.611,26.990 38.699,27.446 38.706,28.202 L38.706,28.297 L38.706,29.640 C38.706,29.659 38.706,29.676 38.704,29.695 L38.704,30.117 C38.704,30.497 38.588,30.818 38.424,31.076 C38.435,31.123 38.441,31.170 38.443,31.220 C38.609,31.531 38.696,31.977 38.705,32.708 C38.706,32.711 38.706,32.714 38.706,32.718 L38.706,32.833 C38.706,32.836 38.706,32.839 38.706,32.842 L38.706,35.173 C38.706,35.543 38.596,35.857 38.441,36.111 C38.442,36.128 38.443,36.144 38.443,36.161 C38.443,36.194 38.440,36.226 38.436,36.257 C38.619,36.587 38.708,37.069 38.708,37.900 L38.708,41.557 C38.711,41.595 38.714,41.654 38.715,41.724 C38.715,42.117 38.631,43.130 37.853,44.034 ZM37.261,14.404 C37.235,14.134 36.789,10.618 32.182,6.515 C32.177,6.509 32.170,6.503 32.163,6.498 C32.163,6.498 32.163,6.498 32.163,6.497 C32.088,6.426 32.032,6.343 31.994,6.256 C31.957,6.169 31.937,6.075 31.937,5.975 C31.937,5.973 31.937,5.971 31.937,5.970 C31.937,5.966 31.937,5.962 31.937,5.960 C31.937,5.931 31.937,5.797 31.937,5.619 C31.937,5.618 31.937,5.618 31.937,5.618 C31.937,5.614 31.937,5.612 31.937,5.609 C31.937,5.608 31.937,5.608 31.937,5.608 C31.937,5.605 31.937,5.602 31.937,5.599 C31.937,5.599 31.937,5.599 31.937,5.599 C31.937,5.596 31.937,5.596 31.937,5.595 L31.937,5.594 C31.937,5.593 31.937,5.591 31.937,5.591 C31.937,5.589 31.937,5.589 31.937,5.589 L31.937,5.589 L31.937,5.588 C31.937,5.588 31.937,5.588 31.937,5.587 C31.937,5.587 31.937,5.587 31.937,5.586 C31.937,5.585 31.937,5.583 31.937,5.582 C31.937,5.582 31.937,5.582 31.937,5.582 C31.937,5.582 31.937,5.582 31.937,5.580 C31.937,5.580 31.937,5.580 31.937,5.580 C31.937,5.579 31.937,5.579 31.937,5.579 C31.937,5.578 31.937,5.578 31.937,5.578 C31.937,5.577 31.937,5.575 31.937,5.574 C31.937,5.573 31.937,5.573 31.937,5.573 C31.937,5.573 31.937,5.573 31.937,5.573 C31.937,5.571 31.937,5.571 31.937,5.571 C31.937,5.571 31.937,5.571 31.937,5.571 C31.937,5.571 31.937,5.571 31.937,5.570 C31.937,5.569 31.937,5.569 31.937,5.569 C31.937,5.568 31.937,5.568 31.937,5.568 C31.937,5.567 31.937,5.567 31.937,5.567 C31.937,5.567 31.937,5.567 31.937,5.566 C31.937,5.566 31.937,5.566 31.937,5.565 L31.937,5.564 C31.937,5.562 31.937,5.561 31.937,5.561 C31.937,5.560 31.937,5.560 31.937,5.560 L31.937,5.556 C31.937,5.555 31.937,5.554 31.937,5.554 L31.937,5.553 L31.937,5.552 L31.937,5.551 L31.937,5.550 C31.937,5.549 31.937,5.549 31.937,5.549 C31.937,5.549 31.937,5.548 31.937,5.548 C31.937,5.548 31.937,5.548 31.937,5.548 C31.937,5.547 31.937,5.547 31.937,5.546 C31.937,5.546 31.937,5.546 31.937,5.546 C31.937,5.545 31.937,5.545 31.937,5.545 C31.937,5.544 31.937,5.543 31.937,5.543 L31.937,5.542 L31.937,5.542 C31.937,5.542 31.937,5.542 31.937,5.540 L31.937,5.539 L31.937,5.538 C31.937,5.538 31.937,5.538 31.937,5.537 L31.937,5.536 L31.937,5.536 L31.937,5.535 C31.937,5.534 31.937,5.534 31.937,5.534 C31.937,5.533 31.937,5.532 31.937,5.531 C31.937,5.530 31.937,5.530 31.937,5.529 L31.937,5.527 C31.937,5.527 31.937,5.527 31.937,5.527 C31.937,5.526 31.937,5.525 31.937,5.524 C31.937,5.523 31.937,5.523 31.937,5.521 L31.937,5.520 L31.937,4.466 L31.937,4.465 C31.937,4.451 31.937,4.438 31.938,4.426 C31.944,4.311 31.975,4.204 32.028,4.111 C32.066,4.042 32.114,3.981 32.171,3.929 L32.190,3.827 C32.217,3.692 32.281,3.569 32.374,3.471 L32.374,1.817 C32.084,1.685 31.503,1.497 30.503,1.455 C30.471,1.453 30.442,1.450 30.412,1.445 L29.019,1.445 C28.988,1.450 28.959,1.453 28.928,1.455 C27.927,1.497 27.347,1.685 27.057,1.817 L27.057,3.471 C27.149,3.569 27.213,3.692 27.240,3.827 L27.260,3.932 C27.353,4.016 27.424,4.127 27.462,4.255 C27.465,4.264 27.467,4.273 27.469,4.282 C27.473,4.296 27.476,4.310 27.479,4.325 C27.488,4.370 27.493,4.416 27.493,4.462 L27.494,4.462 L27.494,5.603 C27.494,5.603 27.494,5.603 27.494,5.604 C27.494,5.606 27.494,5.607 27.494,5.608 C27.494,5.608 27.494,5.610 27.494,5.610 C27.494,5.610 27.494,5.610 27.494,5.610 C27.494,5.611 27.494,5.611 27.494,5.611 C27.494,5.613 27.494,5.614 27.494,5.615 C27.494,5.616 27.494,5.616 27.494,5.617 C27.494,5.617 27.494,5.617 27.494,5.617 L27.494,5.619 C27.494,5.619 27.494,5.620 27.494,5.620 L27.494,5.621 C27.494,5.621 27.494,5.621 27.494,5.622 C27.494,5.623 27.494,5.624 27.494,5.624 C27.494,5.624 27.494,5.624 27.494,5.624 C27.494,5.626 27.494,5.626 27.494,5.626 C27.494,5.627 27.494,5.627 27.494,5.627 L27.494,5.628 C27.494,5.629 27.494,5.629 27.494,5.630 C27.494,5.631 27.494,5.632 27.494,5.633 C27.494,5.633 27.494,5.635 27.494,5.635 C27.494,5.636 27.494,5.638 27.494,5.638 C27.494,5.638 27.494,5.639 27.494,5.640 C27.494,5.641 27.494,5.642 27.494,5.643 C27.494,5.644 27.494,5.644 27.494,5.644 L27.494,5.645 C27.494,5.647 27.494,5.647 27.494,5.648 L27.494,5.649 C27.494,5.649 27.494,5.649 27.494,5.650 C27.494,5.651 27.494,5.651 27.494,5.651 L27.494,5.651 L27.494,5.653 C27.494,5.654 27.494,5.654 27.494,5.655 C27.494,5.656 27.494,5.656 27.494,5.656 C27.494,5.657 27.494,5.657 27.494,5.657 L27.494,5.658 C27.494,5.659 27.494,5.659 27.494,5.659 C27.494,5.660 27.494,5.661 27.494,5.661 C27.494,5.662 27.494,5.662 27.494,5.662 C27.494,5.663 27.494,5.664 27.494,5.665 C27.494,5.666 27.494,5.666 27.494,5.666 C27.494,5.666 27.494,5.668 27.494,5.669 C27.494,5.669 27.494,5.669 27.494,5.670 C27.494,5.670 27.494,5.670 27.494,5.670 C27.494,5.670 27.494,5.670 27.494,5.672 C27.494,5.673 27.494,5.674 27.494,5.674 C27.494,5.675 27.494,5.675 27.494,5.675 C27.494,5.676 27.494,5.677 27.494,5.678 C27.494,5.678 27.494,5.678 27.494,5.679 C27.494,5.679 27.494,5.680 27.494,5.681 C27.494,5.682 27.494,5.684 27.494,5.684 C27.494,5.685 27.494,5.685 27.494,5.685 C27.494,5.688 27.494,5.689 27.494,5.692 C27.494,5.695 27.494,5.697 27.494,5.699 L27.494,5.700 C27.494,5.842 27.494,5.948 27.494,5.971 C27.494,5.976 27.494,5.979 27.494,5.982 C27.494,5.983 27.494,5.985 27.494,5.987 C27.493,6.086 27.474,6.181 27.436,6.268 C27.398,6.356 27.343,6.438 27.268,6.508 C27.268,6.509 27.267,6.509 27.267,6.509 C27.261,6.515 27.255,6.520 27.249,6.526 C22.643,10.629 22.196,14.146 22.170,14.404 L22.170,16.540 C22.170,16.632 22.206,16.706 22.251,16.765 L37.180,16.765 C37.225,16.707 37.261,16.632 37.261,16.540 L37.261,14.404 ZM37.263,19.278 C37.263,18.606 37.196,18.397 37.174,18.348 C37.161,18.338 37.139,18.323 37.121,18.311 C37.087,18.287 37.047,18.259 37.003,18.226 L22.425,18.226 C22.382,18.259 22.342,18.287 22.308,18.311 C22.291,18.323 22.268,18.338 22.255,18.348 C22.233,18.397 22.167,18.606 22.167,19.278 L22.167,20.564 C22.168,20.582 22.169,20.600 22.169,20.618 L22.169,21.097 C22.169,21.114 22.172,21.128 22.174,21.144 L37.255,21.144 C37.258,21.129 37.260,21.114 37.260,21.097 L37.260,20.618 C37.260,20.600 37.262,20.582 37.263,20.564 L37.263,19.278 ZM22.167,32.920 L22.167,35.173 C22.167,35.286 22.221,35.374 22.279,35.437 L37.150,35.437 C37.208,35.374 37.262,35.286 37.262,35.173 L37.262,32.920 C37.261,32.909 37.261,32.898 37.261,32.886 L37.261,32.724 C37.256,32.264 37.216,32.053 37.190,31.961 L22.239,31.961 C22.213,32.053 22.173,32.264 22.168,32.724 L22.168,32.886 C22.168,32.898 22.167,32.909 22.167,32.920 ZM22.169,28.583 L22.169,30.117 C22.169,30.332 22.370,30.462 22.413,30.486 C22.429,30.495 22.443,30.504 22.458,30.513 L36.971,30.513 C36.986,30.505 36.999,30.495 37.016,30.486 C37.057,30.462 37.259,30.332 37.259,30.117 L37.259,28.583 C37.259,28.568 37.260,28.554 37.260,28.539 L37.260,28.211 C37.257,27.797 37.227,27.576 37.201,27.464 L22.226,27.464 C22.201,27.577 22.170,27.799 22.167,28.215 L22.167,28.538 C22.168,28.553 22.169,28.568 22.169,28.583 ZM37.259,25.572 L37.259,23.642 C37.249,23.112 37.192,22.937 37.173,22.893 C37.159,22.882 37.138,22.867 37.120,22.855 C37.045,22.804 36.942,22.733 36.834,22.623 C36.825,22.614 36.817,22.603 36.808,22.593 L22.621,22.593 C22.613,22.603 22.605,22.614 22.596,22.623 C22.487,22.732 22.384,22.803 22.309,22.855 C22.291,22.867 22.270,22.883 22.256,22.893 C22.237,22.937 22.180,23.112 22.170,23.642 L22.170,25.572 C22.170,25.788 22.371,25.916 22.413,25.941 C22.453,25.961 22.491,25.987 22.526,26.016 L36.903,26.016 C36.939,25.987 36.976,25.961 37.016,25.941 C37.058,25.916 37.259,25.788 37.259,25.572 ZM37.269,41.660 C37.268,41.657 37.268,41.654 37.268,41.651 C37.266,41.626 37.264,41.601 37.264,41.578 C37.264,41.565 37.264,41.554 37.265,41.543 L37.265,37.900 C37.265,37.227 37.198,37.019 37.176,36.971 C37.163,36.960 37.141,36.945 37.123,36.933 C37.103,36.918 37.079,36.903 37.055,36.884 L22.375,36.884 C22.350,36.903 22.326,36.918 22.306,36.933 C22.289,36.945 22.266,36.960 22.253,36.971 C22.231,37.019 22.165,37.227 22.165,37.900 L22.165,41.586 C22.165,41.612 22.163,41.638 22.161,41.664 C22.161,41.667 22.160,41.692 22.160,41.731 C22.160,41.732 22.160,41.732 22.160,41.732 C22.161,43.978 25.060,44.194 26.047,44.202 C26.053,44.200 26.060,44.199 26.065,44.198 C26.181,44.059 26.323,43.954 26.506,43.946 C26.719,43.936 26.886,43.983 27.026,44.137 C27.169,44.200 27.806,44.441 29.515,44.472 C29.543,44.474 29.566,44.475 29.592,44.476 C29.631,44.476 29.669,44.476 29.707,44.476 C29.710,44.476 29.712,44.476 29.715,44.476 C29.717,44.476 29.720,44.476 29.722,44.476 C29.760,44.476 29.799,44.476 29.837,44.476 C29.862,44.475 29.887,44.472 29.914,44.472 C31.623,44.441 32.261,44.200 32.403,44.137 C32.543,43.983 32.711,43.936 32.923,43.946 C33.106,43.954 33.248,44.059 33.364,44.198 C33.370,44.199 33.377,44.200 33.383,44.202 C34.977,44.193 36.144,43.811 36.760,43.096 C37.221,42.560 37.271,41.963 37.271,41.731 C37.271,41.695 37.269,41.671 37.269,41.660 ZM8.237,44.931 C6.934,44.928 5.654,44.595 4.523,43.966 C0.923,41.961 -0.326,37.496 1.734,33.992 L8.237,22.956 L14.740,33.992 C15.387,35.092 15.729,36.338 15.732,37.606 C15.741,41.642 12.385,44.922 8.237,44.931 ZM13.429,34.753 L8.237,25.923 L3.045,34.728 C2.023,36.501 2.023,38.665 3.045,40.438 C4.665,43.251 8.322,44.252 11.211,42.674 L11.211,42.699 C14.072,41.095 15.063,37.544 13.429,34.753 ZM8.540,42.110 L8.540,40.639 C10.052,40.639 11.539,39.290 11.539,37.573 L13.051,37.573 C13.051,40.026 11.060,42.110 8.540,42.110 Z"/>
</svg>
